Numix-Square/48x48/apps/mansa.svg

<svg xmlns="http://www.w3.org/2000/svg" xmlns:xlink="http://www.w3.org/1999/xlink" width="48" viewBox="0 0 13.546667 13.546667" height="48">
 <defs>
  <linearGradient gradientTransform="matrix(0.28222223,0,0,0.28222223,0,-283.45334)" xlink:href="#1" id="0" y1="1050.36" x2="0" y2="1006.36" gradientUnits="userSpaceOnUse"/>
  <linearGradient id="1" gradientUnits="userSpaceOnUse" x2="0" gradientTransform="matrix(1.10525,0,0,1.10525,-134.27874,-295.76183)" y1="279.1" y2="268.33">
   <stop stop-color="#ae2434"/>
   <stop stop-color="#d67038" offset="1"/>
  </linearGradient>
 </defs>
 <path d="m 1.4640278,0.28222223 c -0.65383204,0 -1.18180557,0.52797353 -1.18180557,1.18180557 l 0,10.6186112 c 0,0.653832 0.52797353,1.181806 1.18180557,1.181806 l 10.6186112,0 c 0.653832,0 1.181806,-0.527974 1.181806,-1.181806 l 0,-10.6186112 c 0,-0.65383204 -0.527974,-1.18180557 -1.181806,-1.18180557 l -10.6186112,0 z m 0.052917,0.0705556 10.5127785,0 c 0.646725,0 1.164166,0.5174415 1.164166,1.16416671 l 0,10.5127785 c 0,0.646725 -0.517441,1.164166 -1.164166,1.164166 l -10.5127785,0 c -0.64672521,0 -1.16416671,-0.517441 -1.16416671,-1.164166 l 0,-10.5127785 c 0,-0.64672521 0.5174415,-1.16416671 1.16416671,-1.16416671 z" opacity="0.05"/>
 <path d="m 1.5169445,0.35277779 c -0.64672521,0 -1.16416671,0.5174415 -1.16416671,1.16416671 l 0,10.5127785 c 0,0.646725 0.5174415,1.164166 1.16416671,1.164166 l 10.5127785,0 c 0.646725,0 1.164166,-0.517441 1.164166,-1.164166 l 0,-10.5127785 c 0,-0.64672521 -0.517441,-1.16416671 -1.164166,-1.16416671 l -10.5127785,0 z m 0.061736,0.0705556 10.3893054,0 c 0.639619,0 1.155348,0.51572892 1.155348,1.15534725 l 0,10.3893054 c 0,0.639619 -0.515729,1.155348 -1.155348,1.155348 l -10.3893054,0 c -0.63961833,0 -1.15534725,-0.515729 -1.15534725,-1.155348 l 0,-10.3893054 c 0,-0.63961833 0.51572892,-1.15534725 1.15534725,-1.15534725 z" opacity="0.1"/>
 <path d="m 1.5786806,0.42333335 c -0.63961833,0 -1.15534725,0.51572892 -1.15534725,1.15534725 l 0,10.3893054 c 0,0.639619 0.51572892,1.155348 1.15534725,1.155348 l 10.3893054,0 c 0.639619,0 1.155348,-0.515729 1.155348,-1.155348 l 0,-10.3893054 c 0,-0.63961833 -0.515729,-1.15534725 -1.155348,-1.15534725 l -10.3893054,0 z m 0.026458,0.0352778 10.3363891,0 c 0.636065,0 1.146528,0.51046294 1.146528,1.14652778 l 0,10.3363891 c 0,0.636065 -0.510463,1.146528 -1.146528,1.146528 l -10.3363891,0 c -0.63606484,0 -1.14652778,-0.510463 -1.14652778,-1.146528 l 0,-10.3363891 c 0,-0.63606484 0.51046294,-1.14652778 1.14652778,-1.14652778 z" opacity="0.2"/>
 <path d="m 1.6051389,0.45861112 c -0.63606484,0 -1.14652778,0.51046294 -1.14652778,1.14652778 l 0,10.3363891 c 0,0.636065 0.51046294,1.146528 1.14652778,1.146528 l 10.3363891,0 c 0.636065,0 1.146528,-0.510463 1.146528,-1.146528 l 0,-10.3363891 c 0,-0.63606484 -0.510463,-1.14652778 -1.146528,-1.14652778 l -10.3363891,0 z m 0.026458,0.0352778 10.2834727,0 c 0.632511,0 1.137708,0.50519696 1.137708,1.1377084 l 0,10.2834727 c 0,0.632511 -0.505197,1.137708 -1.137708,1.137708 l -10.2834727,0 c -0.63251144,0 -1.1377084,-0.505197 -1.1377084,-1.137708 l 0,-10.2834727 c 0,-0.63251144 0.50519696,-1.1377084 1.1377084,-1.1377084 z" opacity="0.3"/>
 <path d="m 1.6315973,0.4938889 c -0.63251144,0 -1.1377084,0.50519696 -1.1377084,1.1377084 l 0,10.2834727 c 0,0.632511 0.50519696,1.137708 1.1377084,1.137708 l 10.2834727,0 c 0.632511,0 1.137708,-0.505197 1.137708,-1.137708 l 0,-10.2834727 c 0,-0.63251144 -0.505197,-1.1377084 -1.137708,-1.1377084 l -10.2834727,0 z m 0.035278,0.0352778 10.212917,0 c 0.628958,0 1.137708,0.50875042 1.137708,1.13770832 l 0,10.212917 c 0,0.628958 -0.50875,1.137708 -1.137708,1.137708 l -10.212917,0 c -0.6289579,0 -1.13770832,-0.50875 -1.13770832,-1.137708 l 0,-10.212917 c 0,-0.6289579 0.50875042,-1.13770832 1.13770832,-1.13770832 z" opacity="0.4"/>
 <rect rx="1.135" y="0.53" x="0.529" height="12.488" width="12.488" opacity="0.5"/>
 <rect width="12.418" height="12.418" x="0.564" y="0.564" rx="1.129" fill="url(#0)"/>
 <path d="M 14.75 13.09375 C 14.357295 13.09375 14.000039 13.52125 14 13.96875 L 14 19 L 17.75 19 L 17.75 17 L 19.25 17 L 19.25 19 L 23.25 19 L 23.25 16 L 24.75 16 L 24.75 19 L 28.75 19 L 28.75 17 L 30.25 17 L 30.25 19 L 34 19 L 34 13.96875 C 33.999965 13.52095 33.642669 13.09385 33.25 13.09375 L 14.75 13.09375 z " transform="scale(0.28222223,0.28222223)" fill="#bca5a6"/>
 <path d="M 12.8125 15 C 12.371004 15.044001 11.997874 15.4512 12 15.875 L 12 32.125 C 12.00005 32.575397 12.435026 32.999897 12.90625 33 L 35.09375 33 C 35.564973 32.999897 35.999965 32.575198 36 32.125 L 36 17.875 C 36 17.4247 35.565009 17.03125 35.09375 17.03125 L 30.25 17.03125 L 30.25 20.09375 C 31.258354 20.287 32 20.830887 32 21.5 C 32 22.169115 31.258354 22.713 30.25 22.90625 L 30.25 31 L 28.75 31 L 28.75 22.90625 C 27.741646 22.713 27 22.169115 27 21.5 C 27 20.830887 27.741646 20.287 28.75 20.09375 L 28.75 17.03125 L 25.96875 17.03125 L 25.96875 15.875 C 25.96875 15.4246 25.533406 15 25.0625 15 L 12.90625 15 L 12.8125 15 z M 23.25 16 L 24.75 16 L 24.75 27.09375 C 25.758354 27.287 26.5 27.830886 26.5 28.5 C 26.5 29.169115 25.758354 29.713 24.75 29.90625 L 24.75 32 L 23.25 32 L 23.25 29.90625 C 22.241646 29.713 21.5 29.169115 21.5 28.5 C 21.5 27.830886 22.241646 27.287 23.25 27.09375 L 23.25 16 z M 17.75 17 L 19.25 17 L 19.25 20.09375 C 20.258354 20.287 21 20.830887 21 21.5 C 21 22.169115 20.258354 22.713 19.25 22.90625 L 19.25 31 L 17.75 31 L 17.75 22.90625 C 16.741646 22.713 16 22.169115 16 21.5 C 16 20.830887 16.741646 20.287 17.75 20.09375 L 17.75 17 z " transform="scale(0.28222223,0.28222223)" fill="#ecf0f1"/>
</svg>

<svg viewBox="0 0 48 48"><defs><linearGradient id="linearGradient3764" x1="1" x2="47" gradientUnits="userSpaceOnUse" gradientTransform="translate(-47.997785,0.00221467)"><stop stop-color="#b94f33" stop-opacity="1"/><stop offset="1" stop-color="#c85637" stop-opacity="1"/></linearGradient><clipPath id="clipPath-739774505"><g transform="translate(0,-1004.3622)"><rect rx="4" y="1005.36" x="1" height="46" width="46" fill="#1890d0"/></g></clipPath><clipPath id="clipPath-756389097"><g transform="translate(0,-1004.3622)"><rect rx="4" y="1005.36" x="1" height="46" width="46" fill="#1890d0"/></g></clipPath></defs><g><g transform="translate(0,-1004.3622)"><path d="m 5 1006.36 c -2.216 0 -4 1.784 -4 4 l 0 37.25 c 0 2.216 1.784 4 4 4 l 38 0 c 2.216 0 4 -1.784 4 -4 l 0 -37.25 c 0 -2.216 -1.784 -4 -4 -4 l -38 0 z m -4 41.5 0 0.5 c 0 2.216 1.784 4 4 4 l 38 0 c 2.216 0 4 -1.784 4 -4 l 0 -0.5 c 0 2.216 -1.784 4 -4 4 l -38 0 c -2.216 0 -4 -1.784 -4 -4 z" opacity="0.02"/><path d="m 1 1047.61 0 0.25 c 0 2.216 1.784 4 4 4 l 38 0 c 2.216 0 4 -1.784 4 -4 l 0 -0.25 c 0 2.216 -1.784 4 -4 4 l -38 0 c -2.216 0 -4 -1.784 -4 -4 z" opacity="0.05"/><rect width="46" height="46" x="1" y="1005.61" rx="4" opacity="0.1"/></g></g><g><rect width="46" height="46" x="-46.998" y="1" rx="4" transform="matrix(0,-1,1,0,0,0)" fill="url(#linearGradient3764)" fill-opacity="1"/></g><g/><g><g clip-path="url(#clipPath-739774505)"><g opacity="0.1"><!-- color: #c85637 --><g><path d="m 14.75 13.09 c -0.395 0 -0.75 0.43 -0.75 0.875 l 0 5.03 l 3.75 0 l 0 -2 l 1.5 0 l 0 2 l 4 0 l 0 -3 l 1.5 0 l 0 3 l 4 0 l 0 -2 l 1.5 0 l 0 2 l 3.75 0 l 0 -5.03 c 0 -0.449 -0.355 -0.875 -0.75 -0.875 m -18.5 0" stroke="none" fill-rule="nonzero" fill-opacity="1" fill="#000"/><path d="m 12.813 15 c -0.441 0.043 -0.816 0.449 -0.813 0.875 l 0 16.25 c 0 0.449 0.434 0.875 0.906 0.875 l 22.19 0 c 0.469 0 0.906 -0.426 0.906 -0.875 l 0 -14.25 c 0 -0.449 -0.441 -0.844 -0.906 -0.844 l -4.844 0 l 0 3.063 c 1.01 0.191 1.75 0.738 1.75 1.406 c 0 0.668 -0.742 1.215 -1.75 1.406 l 0 8.094 l -1.5 0 l 0 -8.094 c -1.02 -0.191 -1.75 -0.738 -1.75 -1.406 c 0 -0.668 0.73 -1.215 1.75 -1.406 l 0 -3.063 l -2.781 0 l 0 -1.156 c 0 -0.449 -0.441 -0.875 -0.906 -0.875 m -1.816 1 l 1.5 0 l 0 11.09 c 1.012 0.191 1.75 0.738 1.75 1.406 c 0 0.668 -0.742 1.215 -1.75 1.406 l 0 2.094 l -1.5 0 l 0 -2.094 c -1.012 -0.191 -1.75 -0.738 -1.75 -1.406 c 0 -0.668 0.742 -1.215 1.75 -1.406 m -5.5 -10.09 l 1.5 0 l 0 3.094 c 1.012 0.191 1.75 0.738 1.75 1.406 c 0 0.668 -0.742 1.215 -1.75 1.406 l 0 8.094 l -1.5 0 l 0 -8.094 c -1.012 -0.191 -1.75 -0.738 -1.75 -1.406 c 0 -0.668 0.742 -1.215 1.75 -1.406 m 0 -3.094" stroke="none" fill-rule="nonzero" fill-opacity="1" fill="#000"/></g></g></g></g><g><g clip-path="url(#clipPath-756389097)"><g transform="translate(0,-1)"><!-- color: #c85637 --><g><path d="m 14.75 13.09 c -0.395 0 -0.75 0.43 -0.75 0.875 l 0 5.03 l 3.75 0 l 0 -2 l 1.5 0 l 0 2 l 4 0 l 0 -3 l 1.5 0 l 0 3 l 4 0 l 0 -2 l 1.5 0 l 0 2 l 3.75 0 l 0 -5.03 c 0 -0.449 -0.355 -0.875 -0.75 -0.875 m -18.5 0" fill="#b9a3a3" stroke="none" fill-rule="nonzero" fill-opacity="1"/><path d="m 12.813 15 c -0.441 0.043 -0.816 0.449 -0.813 0.875 l 0 16.25 c 0 0.449 0.434 0.875 0.906 0.875 l 22.19 0 c 0.469 0 0.906 -0.426 0.906 -0.875 l 0 -14.25 c 0 -0.449 -0.441 -0.844 -0.906 -0.844 l -4.844 0 l 0 3.063 c 1.01 0.191 1.75 0.738 1.75 1.406 c 0 0.668 -0.742 1.215 -1.75 1.406 l 0 8.094 l -1.5 0 l 0 -8.094 c -1.02 -0.191 -1.75 -0.738 -1.75 -1.406 c 0 -0.668 0.73 -1.215 1.75 -1.406 l 0 -3.063 l -2.781 0 l 0 -1.156 c 0 -0.449 -0.441 -0.875 -0.906 -0.875 m -1.816 1 l 1.5 0 l 0 11.09 c 1.012 0.191 1.75 0.738 1.75 1.406 c 0 0.668 -0.742 1.215 -1.75 1.406 l 0 2.094 l -1.5 0 l 0 -2.094 c -1.012 -0.191 -1.75 -0.738 -1.75 -1.406 c 0 -0.668 0.742 -1.215 1.75 -1.406 m -5.5 -10.09 l 1.5 0 l 0 3.094 c 1.012 0.191 1.75 0.738 1.75 1.406 c 0 0.668 -0.742 1.215 -1.75 1.406 l 0 8.094 l -1.5 0 l 0 -8.094 c -1.012 -0.191 -1.75 -0.738 -1.75 -1.406 c 0 -0.668 0.742 -1.215 1.75 -1.406 m 0 -3.094" fill="#ecedf1" stroke="none" fill-rule="nonzero" fill-opacity="1"/></g></g></g></g><g><g transform="translate(0,-1004.3622)"><path d="m 1 1043.36 0 4 c 0 2.216 1.784 4 4 4 l 38 0 c 2.216 0 4 -1.784 4 -4 l 0 -4 c 0 2.216 -1.784 4 -4 4 l -38 0 c -2.216 0 -4 -1.784 -4 -4 z" opacity="0.1"/></g></g></svg>
